icon/ir/database-export.svg

<svg width="24" height="24" stroke-width="1.5" fill="none" xmlns="http://www.w3.org/2000/svg"><path d="M19 16v6m0 0 3-3m-3 3-3-3M4 6v6s0 3 7 3 7-3 7-3V6" stroke="currentColor" stroke-linecap="round" stroke-linejoin="round"/><path d="M11 3c7 0 7 3 7 3s0 3-7 3-7-3-7-3 0-3 7-3ZM11 21c-7 0-7-3-7-3v-6" stroke="currentColor" stroke-linecap="round" stroke-linejoin="round"/></svg>

<svg stroke-width="1.5" viewBox="0 0 24 24" fill="none" xmlns="http://www.w3.org/2000/svg" height="1em" width="1em">
  <path d="M19 16V22M19 22L22 19M19 22L16 19" stroke="currentColor" stroke-linecap="round" stroke-linejoin="round"/>
  <path d="M4 6V12C4 12 4 15 11 15C18 15 18 12 18 12V6" stroke="currentColor" stroke-linecap="round" stroke-linejoin="round"/>
  <path d="M11 3C18 3 18 6 18 6C18 6 18 9 11 9C4 9 4 6 4 6C4 6 4 3 11 3Z" stroke="currentColor" stroke-linecap="round" stroke-linejoin="round"/>
  <path d="M11 21C4 21 4 18 4 18V12" stroke="currentColor" stroke-linecap="round" stroke-linejoin="round"/>
</svg>
